X:1
T:Langstaon Iris Gigg. JBut.794
T:Langstaon Iris Gigg. JBut.794
T:Langstrom's Pony,aka. JBut.794 Langstern Pony,aka. JBut.794, The Farrell's Pipes,aka. JBut.794 Paddy the Piper,aka. JBut.794 Saddle the Pony,aka. JBut.794
T:A Quick Step
C:A Quick Step
L:1/8
Q:3/8=100
M:6/8
K:D
V:1 treble 
V:1
 f"^NB1" |: fed cAA | cAA ecA | fed cAA | BGB dcB | fed cAA | cAA efg | f/g/af g2 d | BGB dcB :: %9
 cee dff | cee ecA | cee dff | BGB dcB | cee dff | cee efg | f/g/af g2 d | BGB dcB :: ABA a3 | %18
 ABA ecA | ABA g3 | BGB dcB | ABA agf | gfe fed | f/g/af g2 d | BGB dcB :: cAA cAA | cAA ecA | %27
 cAA cAA | BGB dcB | cAA cAA | cAA efg | f/g/af g2 d | BGB dcB :| %33

